dist/assets/img/svgIcons/24_7_icon.svg

<svg width="85" height="98" viewBox="0 0 85 98" fill="none" xmlns="http://www.w3.org/2000/svg">
<path d="M37.5057 2.87905C40.5968 1.09712 44.4032 1.09713 47.4943 2.87906L79.9943 21.6143C83.0915 23.3998 85 26.7029 85 30.2779V67.7221C85 71.2971 83.0915 74.6002 79.9943 76.3857L47.4943 95.1209C44.4032 96.9029 40.5968 96.9029 37.5057 95.1209L5.00571 76.3856C1.90848 74.6002 0 71.2971 0 67.7221V30.2779C0 26.7029 1.90848 23.3998 5.00572 21.6144L37.5057 2.87905Z" fill="#FF8502"/>
<g clip-path="url(#clip0_482_967)">
<g filter="url(#filter0_i_482_967)">
<path d="M30 53.2176V52.0027C30 51.2981 30.1513 50.6879 30.4541 50.172C30.7626 49.656 31.1555 49.2509 31.6329 48.9569C32.1102 48.6629 32.6401 48.4105 33.2221 48.1997C33.8044 47.9889 34.3864 47.8197 34.9685 47.6922C35.5565 47.5589 36.0891 47.4257 36.5665 47.2926C37.6493 46.9819 38.1907 46.5409 38.1907 45.9694C38.1907 45.3481 38.0218 44.9237 37.6843 44.6962C37.3466 44.4687 36.776 44.355 35.9728 44.355H35.3527C34.2292 44.355 33.49 44.6962 33.1348 45.3786C32.8729 45.9001 32.4799 46.1608 31.956 46.1608H30.9169C30.6316 46.1608 30.4104 46.0637 30.2532 45.8696C30.096 45.6753 30.0174 45.4646 30.0174 45.2371C30.0174 44.6047 30.2707 44.036 30.7772 43.5312C31.2894 43.0208 31.924 42.6379 32.6807 42.3828C33.4375 42.1276 34.2264 42 35.0472 42H36.2259C38.7816 42 40.3999 42.6769 41.081 44.0304C41.3488 44.5631 41.4827 45.1816 41.4827 45.8863C41.4827 46.5908 41.3313 47.19 41.0286 47.6837C40.7259 48.1774 40.3359 48.5714 39.8585 48.8654C39.3811 49.1539 38.8486 49.4036 38.2605 49.6144C37.6784 49.8252 37.0962 49.9999 36.5141 50.1386C35.9319 50.2717 35.4022 50.3995 34.9248 50.5215C33.8364 50.8099 33.292 51.1843 33.292 51.6448H40.5396C40.7783 51.6448 40.9761 51.7225 41.1333 51.8779C41.2963 52.0332 41.3778 52.2191 41.3778 52.4355V53.2176C41.3778 53.434 41.2935 53.6199 41.1246 53.7752C40.9616 53.925 40.7666 54 40.5396 54H30.847C30.62 54 30.422 53.925 30.2532 53.7752C30.0844 53.6199 30 53.434 30 53.2176ZM41.9367 51.1206V50.1304C41.9367 49.642 42.1173 49.2093 42.4781 48.8322L48.2501 42.5825C48.5701 42.2442 49.0243 42.0721 49.6122 42.0666H52.3454C52.5841 42.0666 52.7849 42.1442 52.9479 42.2996C53.111 42.455 53.1923 42.6408 53.1923 42.8572V49.5479H54.1529C54.3916 49.5479 54.5924 49.6255 54.7555 49.7809C54.9185 49.9361 55 50.1219 55 50.3383V51.1206C55 51.337 54.9155 51.5229 54.7466 51.6782C54.578 51.828 54.3799 51.9028 54.1529 51.9028H53.1923V53.2176C53.1923 53.434 53.108 53.6199 52.9391 53.7752C52.7702 53.925 52.5724 54 52.3454 54H50.7212C50.4942 54 50.2991 53.9279 50.1361 53.7836C49.9789 53.6338 49.9004 53.4507 49.9004 53.2343V51.9028H42.7838C42.5566 51.9028 42.3588 51.828 42.1899 51.6782C42.0211 51.5229 41.9367 51.337 41.9367 51.1206ZM45.4469 49.5479H49.9004V44.7296L45.4469 49.5479Z" fill="white"/>
</g>
<g filter="url(#filter1_i_482_967)">
<path d="M62 54.0544V53.53C62 53.3849 62.0612 53.2603 62.1835 53.1562C62.3058 53.052 62.4492 53 62.6139 53H69.3924C69.5569 53 69.6982 53.052 69.8163 53.1562C69.9386 53.2603 70 53.3849 70 53.53V54.0433C70 54.2998 69.8712 54.6383 69.6138 55.0586L66.291 60.4757C66.0759 60.8252 65.7995 61 65.4619 61H64.1645C63.9957 61 63.8754 60.9516 63.8037 60.855C63.7361 60.7545 63.7361 60.6467 63.8037 60.5314L67.4619 54.5789H62.6139C62.4409 54.5789 62.2953 54.5285 62.1772 54.4282C62.0589 54.3239 62 54.1995 62 54.0544Z" fill="white"/>
</g>
<g filter="url(#filter2_i_482_967)">
<path d="M63.7322 67.455C57.2046 73.8529 48.8538 76.8805 42.4976 76.9955C36.1415 77.1104 29.9362 75.0203 24.9019 71.069C19.8677 67.1178 16.3043 61.5406 14.7977 55.2543C13.2911 48.968 13.931 42.3472 16.6121 36.4802C19.2932 30.6132 23.856 25.8495 29.5501 22.9724C35.2443 20.0953 41.7307 19.276 47.9432 20.6493C54.1554 22.0226 59.7236 25.5067 63.7322 30.5287C67.7409 35.5507 69.9513 41.8117 70 48.2821H64.8136L59.2269 48.3659C59.197 44.3851 57.8372 40.5331 55.3709 37.4433C52.9046 34.3535 49.4787 32.2099 45.6567 31.365C41.8345 30.5201 37.8436 31.0241 34.3403 32.7943C30.8371 34.5644 28.0299 37.4953 26.3804 41.1049C24.7308 44.7144 24.3372 48.788 25.2641 52.6555C26.191 56.5231 28.3834 59.9545 31.4807 62.3856C34.5779 64.8165 38.3958 66.1024 42.3064 66.0316C46.217 65.961 50.9187 66.0316 56.7634 59.4857L60.182 63.5266L63.7322 67.455Z" fill="white"/>
</g>
<g filter="url(#filter3_d_482_967)">
<path d="M32 38.9749V35.2406H34.5202V35.8944H32.8437V36.6737H33.179C33.5553 36.6737 33.8626 36.7225 34.1011 36.8201C34.3432 36.9177 34.522 37.052 34.6375 37.2228C34.753 37.3937 34.8108 37.5889 34.8108 37.8086C34.8108 38.0526 34.753 38.2619 34.6375 38.4362C34.522 38.6106 34.3432 38.7448 34.1011 38.8389C33.8589 38.9296 33.546 38.9749 33.1623 38.9749H32ZM33.1288 38.3264C33.3858 38.3264 33.587 38.2881 33.7323 38.2114C33.8813 38.1347 33.9558 38.0004 33.9558 37.8086C33.9558 37.6761 33.9185 37.575 33.844 37.5053C33.7732 37.4355 33.6707 37.3884 33.5367 37.364C33.4062 37.3361 33.2479 37.3222 33.0617 37.3222H32.8437V38.3264H33.1288ZM36.7537 36.0669C37.0367 36.0669 37.279 36.1175 37.4801 36.2186C37.6849 36.3197 37.8433 36.4662 37.9551 36.658C38.0669 36.8497 38.1227 37.0851 38.1227 37.364V37.7406H36.1557C36.1631 37.9603 36.2321 38.133 36.3624 38.2584C36.4966 38.384 36.681 38.4466 36.9157 38.4466C37.1131 38.4466 37.2919 38.4293 37.4521 38.3944C37.6124 38.3561 37.7781 38.2985 37.9494 38.2218V38.8233C37.8005 38.893 37.6421 38.9435 37.4745 38.9749C37.3106 39.0098 37.1112 39.0273 36.8766 39.0273C36.5711 39.0273 36.301 38.9749 36.0664 38.8703C35.8315 38.7622 35.6473 38.6002 35.5131 38.384C35.3789 38.1678 35.312 37.8958 35.312 37.568C35.312 37.2333 35.3715 36.9561 35.4907 36.7364C35.6138 36.5133 35.7832 36.3459 35.9993 36.2343C36.2154 36.1227 36.4667 36.0669 36.7537 36.0669ZM36.7592 36.6214C36.5991 36.6214 36.4649 36.6702 36.3568 36.7678C36.2527 36.8654 36.1911 37.0171 36.1724 37.2228H37.3403C37.3403 37.1078 37.3181 37.0049 37.2734 36.9142C37.2322 36.8236 37.169 36.7521 37.0834 36.6998C36.9976 36.6475 36.8895 36.6214 36.7592 36.6214ZM39.9098 36.0669C40.1296 36.0669 40.3345 36.0948 40.5244 36.1506C40.7181 36.2029 40.8727 36.2849 40.9882 36.3965C41.1076 36.508 41.1671 36.651 41.1671 36.8253C41.1671 36.9962 41.1113 37.1322 40.9995 37.2333C40.8914 37.3344 40.7443 37.4076 40.558 37.453V37.4791C40.6883 37.507 40.8058 37.5471 40.91 37.5994C41.0143 37.6482 41.0962 37.7162 41.1559 37.8034C41.2193 37.8871 41.2508 38.0004 41.2508 38.1434C41.2508 38.3002 41.1969 38.4466 41.0888 38.5826C40.9845 38.7152 40.8206 38.8233 40.5971 38.9069C40.3773 38.9872 40.0942 39.0273 39.7478 39.0273C39.5838 39.0273 39.4292 39.0203 39.2839 39.0063C39.1386 38.9924 39.0064 38.9731 38.8872 38.9489C38.7681 38.9209 38.6637 38.8878 38.5744 38.8495V38.2062C38.701 38.2619 38.8555 38.3125 39.0381 38.3578C39.2244 38.4031 39.4218 38.4258 39.6303 38.4258C39.7832 38.4258 39.9191 38.4154 40.0383 38.3944C40.1613 38.3734 40.2581 38.3385 40.3289 38.2898C40.4034 38.241 40.4407 38.1765 40.4407 38.0964C40.4407 38.0196 40.409 37.9568 40.3456 37.908C40.2824 37.8557 40.1873 37.8173 40.0607 37.7929C39.9341 37.7685 39.7719 37.7563 39.5745 37.7563H39.2503V37.2176H39.5578C39.8335 37.2176 40.0457 37.1967 40.1947 37.1548C40.3474 37.113 40.4238 37.0345 40.4238 36.9195C40.4238 36.8288 40.3754 36.7608 40.2787 36.7155C40.1817 36.6667 40.0234 36.6423 39.8036 36.6423C39.6583 36.6423 39.5 36.658 39.3286 36.6893C39.1573 36.7207 38.9953 36.7661 38.8426 36.8253L38.5966 36.2814C38.7718 36.2186 38.9636 36.1681 39.1721 36.1297C39.3808 36.0879 39.6266 36.0669 39.9098 36.0669ZM46.037 36.8672C46.037 37.0206 45.9849 37.1513 45.8805 37.2594C45.7801 37.3675 45.6292 37.4373 45.4279 37.4687V37.4896C45.6403 37.514 45.8097 37.582 45.9365 37.6935C46.0668 37.8051 46.132 37.9481 46.132 38.1224C46.132 38.2445 46.1059 38.3578 46.0538 38.4624C46.0054 38.567 45.9272 38.6576 45.8192 38.7344C45.7111 38.8111 45.5714 38.8703 45.4001 38.9123C45.2323 38.9541 45.0275 38.9749 44.7853 38.9749H43.3325V36.1193H44.7853C45.0238 36.1193 45.2361 36.1437 45.4223 36.1925C45.6123 36.2378 45.7613 36.3145 45.8694 36.4226C45.9812 36.5307 46.037 36.6789 46.037 36.8672ZM45.2715 38.0806C45.2715 37.969 45.2249 37.8888 45.1317 37.84C45.0387 37.7877 44.8989 37.7615 44.7126 37.7615H44.1651V38.4362H44.7295C44.8859 38.4362 45.0144 38.41 45.115 38.3578C45.2194 38.3019 45.2715 38.2096 45.2715 38.0806ZM45.1932 36.9299C45.1932 36.8393 45.156 36.773 45.0815 36.7312C45.007 36.6893 44.897 36.6684 44.7517 36.6684H44.1651V37.2333H44.6568C44.832 37.2333 44.9641 37.2106 45.0535 37.1653C45.1467 37.1165 45.1932 37.038 45.1932 36.9299ZM47.6514 37.249C47.6514 37.3082 47.6476 37.3815 47.6402 37.4687C47.6365 37.5558 47.631 37.6447 47.6236 37.7354C47.6198 37.826 47.6141 37.9062 47.6067 37.976C47.5993 38.0457 47.5937 38.0944 47.59 38.1224L48.9981 36.1193H49.9985V38.9749H49.1937V37.8348C49.1937 37.7406 49.1974 37.6377 49.205 37.5262C49.2124 37.4111 49.2198 37.3048 49.2272 37.2071C49.2383 37.106 49.2459 37.0293 49.2496 36.977L47.8471 38.9749H46.8467V36.1193H47.6514V37.249ZM51.4944 37.5157L50.5109 36.1193H51.4553L52.0477 37.0293L52.6454 36.1193H53.5898L52.5952 37.5157L53.6347 38.9749H52.6903L52.0477 37.9969L51.4051 38.9749H50.4607L51.4944 37.5157ZM54.9316 36.1193V38.9749H54.099V36.1193H54.9316ZM54.5182 35C54.6411 35 54.7473 35.0279 54.8367 35.0837C54.926 35.136 54.9708 35.2354 54.9708 35.3818C54.9708 35.5248 54.926 35.6241 54.8367 35.6799C54.7473 35.7357 54.6411 35.7636 54.5182 35.7636C54.3914 35.7636 54.2834 35.7357 54.194 35.6799C54.1084 35.6241 54.0656 35.5248 54.0656 35.3818C54.0656 35.2354 54.1084 35.136 54.194 35.0837C54.2834 35.0279 54.3914 35 54.5182 35ZM58.5453 36.1193V38.4048H58.9924V40H58.2436V38.9749H56.1929V40H55.4441V38.4048H55.7011C55.8351 38.2131 55.9488 37.9951 56.042 37.7511C56.135 37.5035 56.2095 37.2403 56.2655 36.9613C56.3213 36.6824 56.3623 36.4017 56.3884 36.1193H58.5453ZM57.0868 36.705C57.0572 36.9142 57.0199 37.1182 56.975 37.317C56.9304 37.5122 56.8746 37.7005 56.8075 37.8818C56.7441 38.0632 56.6659 38.2374 56.5728 38.4048H57.7127V36.705H57.0868ZM60.3449 36.1193V37.2176H61.5072V36.1193H62.3398V38.9749H61.5072V37.7982H60.3449V38.9749H59.5123V36.1193H60.3449ZM64.0169 37.249C64.0169 37.3082 64.0132 37.3815 64.0058 37.4687C64.0021 37.5558 63.9965 37.6447 63.9891 37.7354C63.9852 37.826 63.9796 37.9062 63.9722 37.976C63.9648 38.0457 63.9592 38.0944 63.9555 38.1224L65.3636 36.1193H66.3638V38.9749H65.5592V37.8348C65.5592 37.7406 65.5629 37.6377 65.5703 37.5262C65.5779 37.4111 65.5853 37.3048 65.5927 37.2071C65.6039 37.106 65.6113 37.0293 65.6152 36.977L64.2124 38.9749H63.2123V36.1193H64.0169V37.249ZM67.8599 37.5157L66.8765 36.1193H67.8208L68.413 37.0293L69.011 36.1193H69.9553L68.9607 37.5157L70 38.9749H69.0556L68.413 37.9969L67.7704 38.9749H66.8261L67.8599 37.5157Z" fill="white"/>
</g>
</g>
<defs>
<filter id="filter0_i_482_967" x="30" y="42" width="25.1" height="12.7" filterUnits="userSpaceOnUse" color-interpolation-filters="sRGB">
<feFlood flood-opacity="0" result="BackgroundImageFix"/>
<feBlend mode="normal" in="SourceGraphic" in2="BackgroundImageFix" result="shape"/>
<feColorMatrix in="SourceAlpha" type="matrix" values="0 0 0 0 0 0 0 0 0 0 0 0 0 0 0 0 0 0 127 0" result="hardAlpha"/>
<feOffset dx="0.1" dy="0.7"/>
<feGaussianBlur stdDeviation="0.55"/>
<feComposite in2="hardAlpha" operator="arithmetic" k2="-1" k3="1"/>
<feColorMatrix type="matrix" values="0 0 0 0 0 0 0 0 0 0 0 0 0 0 0 0 0 0 0.7 0"/>
<feBlend mode="normal" in2="shape" result="effect1_innerShadow_482_967"/>
</filter>
<filter id="filter1_i_482_967" x="62" y="53" width="8.1" height="8.7" filterUnits="userSpaceOnUse" color-interpolation-filters="sRGB">
<feFlood flood-opacity="0" result="BackgroundImageFix"/>
<feBlend mode="normal" in="SourceGraphic" in2="BackgroundImageFix" result="shape"/>
<feColorMatrix in="SourceAlpha" type="matrix" values="0 0 0 0 0 0 0 0 0 0 0 0 0 0 0 0 0 0 127 0" result="hardAlpha"/>
<feOffset dx="0.1" dy="0.7"/>
<feGaussianBlur stdDeviation="0.5"/>
<feComposite in2="hardAlpha" operator="arithmetic" k2="-1" k3="1"/>
<feColorMatrix type="matrix" values="0 0 0 0 0 0 0 0 0 0 0 0 0 0 0 0 0 0 0.7 0"/>
<feBlend mode="normal" in2="shape" result="effect1_innerShadow_482_967"/>
</filter>
<filter id="filter2_i_482_967" x="14" y="20" width="56.1" height="57.7" filterUnits="userSpaceOnUse" color-interpolation-filters="sRGB">
<feFlood flood-opacity="0" result="BackgroundImageFix"/>
<feBlend mode="normal" in="SourceGraphic" in2="BackgroundImageFix" result="shape"/>
<feColorMatrix in="SourceAlpha" type="matrix" values="0 0 0 0 0 0 0 0 0 0 0 0 0 0 0 0 0 0 127 0" result="hardAlpha"/>
<feOffset dx="0.1" dy="0.7"/>
<feGaussianBlur stdDeviation="0.55"/>
<feComposite in2="hardAlpha" operator="arithmetic" k2="-1" k3="1"/>
<feColorMatrix type="matrix" values="0 0 0 0 0 0 0 0 0 0 0 0 0 0 0 0 0 0 0.7 0"/>
<feBlend mode="normal" in2="shape" result="effect1_innerShadow_482_967"/>
</filter>
<filter id="filter3_d_482_967" x="31.95" y="35" width="38.5" height="5.75" filterUnits="userSpaceOnUse" color-interpolation-filters="sRGB">
<feFlood flood-opacity="0" result="BackgroundImageFix"/>
<feColorMatrix in="SourceAlpha" type="matrix" values="0 0 0 0 0 0 0 0 0 0 0 0 0 0 0 0 0 0 127 0" result="hardAlpha"/>
<feOffset dx="0.2" dy="0.5"/>
<feGaussianBlur stdDeviation="0.125"/>
<feComposite in2="hardAlpha" operator="out"/>
<feColorMatrix type="matrix" values="0 0 0 0 0 0 0 0 0 0 0 0 0 0 0 0 0 0 0.7 0"/>
<feBlend mode="normal" in2="BackgroundImageFix" result="effect1_dropShadow_482_967"/>
<feBlend mode="normal" in="SourceGraphic" in2="effect1_dropShadow_482_967" result="shape"/>
</filter>
<clipPath id="clip0_482_967">
<rect width="57" height="57" fill="white" transform="translate(14 20)"/>
</clipPath>
</defs>
</svg>

<svg xmlns="http://www.w3.org/2000/svg" width="85" height="98" fill="none" viewBox="0 0 85 98">
  <path fill="#FF8502" d="M37.506 2.879a10 10 0 0 1 9.988 0l32.5 18.735A10 10 0 0 1 85 30.278v37.444a10 10 0 0 1-5.006 8.664l-32.5 18.735a10 10 0 0 1-9.988 0l-32.5-18.735A10 10 0 0 1 0 67.722V30.278a10 10 0 0 1 5.006-8.664z"/>
  <g clip-path="url(#clip0_482_967)">
    <g filter="url(#filter0_i_482_967)">
      <path fill="#fff" d="M30 53.218v-1.215q0-1.057.454-1.831a3.5 3.5 0 0 1 1.179-1.215 8.6 8.6 0 0 1 1.59-.757q.872-.316 1.745-.508.882-.2 1.598-.4 1.625-.465 1.625-1.323 0-.93-.507-1.273-.506-.34-1.711-.341h-.62q-1.686 0-2.218 1.024-.393.782-1.179.782h-1.04q-.427 0-.663-.291a1 1 0 0 1-.236-.633q0-.948.76-1.706.768-.765 1.904-1.148A7.4 7.4 0 0 1 35.047 42h1.179q3.834 0 4.855 2.03.402.8.402 1.856t-.454 1.798a3.5 3.5 0 0 1-1.17 1.181 9 9 0 0 1-1.599.75 16 16 0 0 1-1.746.524q-.873.199-1.59.383-1.632.432-1.632 1.123h7.248a.8.8 0 0 1 .593.233.74.74 0 0 1 .245.557v.783a.73.73 0 0 1-.253.557.84.84 0 0 1-.585.225h-9.693a.87.87 0 0 1-.594-.225.73.73 0 0 1-.253-.557m11.937-2.097v-.99q0-.733.541-1.299l5.772-6.25q.48-.507 1.362-.515h2.733a.84.84 0 0 1 .603.233.74.74 0 0 1 .244.557v6.69h.96a.84.84 0 0 1 .603.234.74.74 0 0 1 .245.557v.783a.73.73 0 0 1-.253.557.87.87 0 0 1-.594.225h-.96v1.315a.73.73 0 0 1-.254.557.87.87 0 0 1-.594.225h-1.624a.85.85 0 0 1-.585-.216.73.73 0 0 1-.236-.55v-1.331h-7.116a.87.87 0 0 1-.594-.225.73.73 0 0 1-.253-.557m3.51-1.573H49.9V44.73z"/>
    </g>
    <g filter="url(#filter1_i_482_967)">
      <path fill="#fff" d="M62 54.054v-.524q0-.218.184-.374a.64.64 0 0 1 .43-.156h6.778q.247 0 .424.156a.48.48 0 0 1 .184.374v.513q0 .385-.386 1.016l-3.323 5.417q-.323.524-.83.524h-1.296q-.255 0-.361-.145-.102-.15 0-.324l3.658-5.952h-4.848a.65.65 0 0 1-.437-.15.48.48 0 0 1-.177-.375"/>
    </g>
    <g filter="url(#filter2_i_482_967)">
      <path fill="#fff" d="M63.732 67.455c-6.527 6.398-14.878 9.426-21.234 9.54a27.68 27.68 0 0 1-17.596-5.926c-5.034-3.951-8.598-9.528-10.104-15.815a28.97 28.97 0 0 1 1.814-18.774c2.681-5.867 7.244-10.63 12.938-13.508a27.56 27.56 0 0 1 18.393-2.323c6.212 1.374 11.78 4.858 15.79 9.88A28.8 28.8 0 0 1 70 48.282h-5.186l-5.587.084a17.73 17.73 0 0 0-3.856-10.923 17.2 17.2 0 0 0-9.714-6.078 16.96 16.96 0 0 0-11.317 1.43 17.4 17.4 0 0 0-7.96 8.31 17.82 17.82 0 0 0-1.116 11.55 17.57 17.57 0 0 0 6.217 9.73 17.03 17.03 0 0 0 10.825 3.647c3.911-.071 8.613 0 14.457-6.546l3.419 4.04z"/>
    </g>
    <g filter="url(#filter3_d_482_967)">
      <path fill="#fff" d="M32 38.975V35.24h2.52v.653h-1.676v.78h.335q.564 0 .922.146.363.147.537.403.173.256.173.586 0 .366-.173.627-.174.262-.537.403-.363.136-.939.136zm1.129-.649q.385 0 .603-.115.224-.114.224-.402 0-.2-.112-.304a.57.57 0 0 0-.307-.141 2.3 2.3 0 0 0-.475-.042h-.218v1.004zm3.625-2.26q.425 0 .726.153a1.1 1.1 0 0 1 .475.439q.168.288.168.706v.377h-1.967q.01.33.206.517.202.189.554.189.296 0 .536-.053a3 3 0 0 0 .497-.172v.601q-.223.105-.474.152a3 3 0 0 1-.598.052q-.459 0-.81-.157a1.25 1.25 0 0 1-.554-.486q-.201-.324-.201-.816 0-.502.179-.832.184-.334.508-.502t.755-.167m.005.555a.58.58 0 0 0-.402.147q-.156.147-.185.455h1.168a.7.7 0 0 0-.067-.309.48.48 0 0 0-.19-.214.6.6 0 0 0-.324-.079m3.15-.554q.33 0 .615.084.291.078.464.245a.56.56 0 0 1 .18.43q0 .255-.169.407a.97.97 0 0 1-.441.22v.026q.196.042.352.12a.6.6 0 0 1 .246.204.55.55 0 0 1 .095.34.7.7 0 0 1-.162.44q-.157.198-.492.324-.33.12-.85.12-.245 0-.463-.02a4 4 0 0 1-.397-.058 2 2 0 0 1-.313-.1v-.643q.19.084.464.152a2.5 2.5 0 0 0 .592.068q.23 0 .408-.032a.7.7 0 0 0 .29-.104.22.22 0 0 0 .113-.194.23.23 0 0 0-.095-.188.64.64 0 0 0-.285-.115 2.7 2.7 0 0 0-.486-.037h-.325v-.538h.308q.414 0 .637-.063.228-.062.229-.236 0-.135-.145-.203-.146-.075-.475-.074-.219 0-.475.047a2.7 2.7 0 0 0-.486.136l-.246-.544q.263-.093.575-.151.314-.063.738-.063m6.128.8a.54.54 0 0 1-.157.392q-.15.162-.452.21v.02a.9.9 0 0 1 .509.205.54.54 0 0 1 .195.428.75.75 0 0 1-.078.34.7.7 0 0 1-.235.272 1.2 1.2 0 0 1-.419.178 2.6 2.6 0 0 1-.615.063h-1.452v-2.856h1.452q.358 0 .637.074.286.068.447.23a.6.6 0 0 1 .168.444m-.765 1.214a.25.25 0 0 0-.14-.241q-.14-.078-.42-.079h-.547v.675h.565a.83.83 0 0 0 .385-.078q.157-.084.157-.277m-.079-1.151a.21.21 0 0 0-.111-.199.7.7 0 0 0-.33-.063h-.587v.565h.492q.262 0 .397-.068a.25.25 0 0 0 .14-.235m2.458.319q0 .09-.01.22a7 7 0 0 1-.017.266 4 4 0 0 1-.034.387l1.408-2.003h1v2.856h-.804v-1.14q0-.141.011-.309l.022-.319q.017-.152.023-.23l-1.403 1.998h-1v-2.856h.804zm3.843.267-.983-1.397h.944l.593.91.597-.91h.945l-.995 1.397 1.04 1.459h-.945l-.642-.978-.643.978h-.944zm3.438-1.397v2.856h-.833v-2.856zM54.518 35a.6.6 0 0 1 .319.084q.134.078.134.298 0 .214-.134.298a.6.6 0 0 1-.319.084.6.6 0 0 1-.324-.084q-.129-.084-.128-.298 0-.22.128-.298a.6.6 0 0 1 .324-.084m4.027 1.12v2.285h.447V40h-.748v-1.025h-2.051V40h-.749v-1.595h.257a3 3 0 0 0 .341-.654q.139-.37.224-.79a8 8 0 0 0 .122-.842zm-1.458.585q-.045.314-.112.612-.067.292-.168.565a3.3 3.3 0 0 1-.234.523h1.14v-1.7zm3.258-.586v1.099h1.162v-1.099h.833v2.856h-.833v-1.177h-1.162v1.177h-.833v-2.856zm3.672 1.13q0 .09-.011.22-.006.13-.017.266a4 4 0 0 1-.033.387l1.408-2.003h1v2.856h-.805v-1.14q0-.141.011-.309l.023-.319.022-.23-1.403 1.998h-1v-2.856h.805zm3.843.267-.984-1.397h.945l.592.91.598-.91h.944l-.994 1.397L70 38.975h-.944l-.643-.978-.643.978h-.944z"/>
    </g>
  </g>
  <defs>
    <filter id="filter0_i_482_967" width="25.1" height="12.7" x="30" y="42" color-interpolation-filters="sRGB" filterUnits="userSpaceOnUse">
      <feFlood flood-opacity="0" result="BackgroundImageFix"/>
      <feBlend in="SourceGraphic" in2="BackgroundImageFix" result="shape"/>
      <feColorMatrix in="SourceAlpha" result="hardAlpha" values="0 0 0 0 0 0 0 0 0 0 0 0 0 0 0 0 0 0 127 0"/>
      <feOffset dx=".1" dy=".7"/>
      <feGaussianBlur stdDeviation=".55"/>
      <feComposite in2="hardAlpha" k2="-1" k3="1" operator="arithmetic"/>
      <feColorMatrix values="0 0 0 0 0 0 0 0 0 0 0 0 0 0 0 0 0 0 0.7 0"/>
      <feBlend in2="shape" result="effect1_innerShadow_482_967"/>
    </filter>
    <filter id="filter1_i_482_967" width="8.1" height="8.7" x="62" y="53" color-interpolation-filters="sRGB" filterUnits="userSpaceOnUse">
      <feFlood flood-opacity="0" result="BackgroundImageFix"/>
      <feBlend in="SourceGraphic" in2="BackgroundImageFix" result="shape"/>
      <feColorMatrix in="SourceAlpha" result="hardAlpha" values="0 0 0 0 0 0 0 0 0 0 0 0 0 0 0 0 0 0 127 0"/>
      <feOffset dx=".1" dy=".7"/>
      <feGaussianBlur stdDeviation=".5"/>
      <feComposite in2="hardAlpha" k2="-1" k3="1" operator="arithmetic"/>
      <feColorMatrix values="0 0 0 0 0 0 0 0 0 0 0 0 0 0 0 0 0 0 0.7 0"/>
      <feBlend in2="shape" result="effect1_innerShadow_482_967"/>
    </filter>
    <filter id="filter2_i_482_967" width="56.1" height="57.7" x="14" y="20" color-interpolation-filters="sRGB" filterUnits="userSpaceOnUse">
      <feFlood flood-opacity="0" result="BackgroundImageFix"/>
      <feBlend in="SourceGraphic" in2="BackgroundImageFix" result="shape"/>
      <feColorMatrix in="SourceAlpha" result="hardAlpha" values="0 0 0 0 0 0 0 0 0 0 0 0 0 0 0 0 0 0 127 0"/>
      <feOffset dx=".1" dy=".7"/>
      <feGaussianBlur stdDeviation=".55"/>
      <feComposite in2="hardAlpha" k2="-1" k3="1" operator="arithmetic"/>
      <feColorMatrix values="0 0 0 0 0 0 0 0 0 0 0 0 0 0 0 0 0 0 0.7 0"/>
      <feBlend in2="shape" result="effect1_innerShadow_482_967"/>
    </filter>
    <filter id="filter3_d_482_967" width="38.5" height="5.75" x="31.95" y="35" color-interpolation-filters="sRGB" filterUnits="userSpaceOnUse">
      <feFlood flood-opacity="0" result="BackgroundImageFix"/>
      <feColorMatrix in="SourceAlpha" result="hardAlpha" values="0 0 0 0 0 0 0 0 0 0 0 0 0 0 0 0 0 0 127 0"/>
      <feOffset dx=".2" dy=".5"/>
      <feGaussianBlur stdDeviation=".125"/>
      <feComposite in2="hardAlpha" operator="out"/>
      <feColorMatrix values="0 0 0 0 0 0 0 0 0 0 0 0 0 0 0 0 0 0 0.7 0"/>
      <feBlend in2="BackgroundImageFix" result="effect1_dropShadow_482_967"/>
      <feBlend in="SourceGraphic" in2="effect1_dropShadow_482_967" result="shape"/>
    </filter>
    <clipPath id="clip0_482_967">
      <path fill="#fff" d="M14 20h57v57H14z"/>
    </clipPath>
  </defs>
</svg>
